modules/hawcons-filled/icons/icon-40-one-finger-tap.svg

<?xml version="1.0" encoding="UTF-8" standalone="no"?>
<svg width="32px" height="32px" viewBox="0 0 32 32" version="1.1" xmlns="http://www.w3.org/2000/svg" xmlns:xlink="http://www.w3.org/1999/xlink" xmlns:sketch="http://www.bohemiancoding.com/sketch/ns">
    <!-- Generator: Sketch 3.0.3 (7891) - http://www.bohemiancoding.com/sketch -->
    <title>icon 40 one finger tap</title>
    <desc>Created with Sketch.</desc>
    <defs></defs>
    <g id="Page-1" stroke="none" stroke-width="1" fill="none" fill-rule="evenodd" sketch:type="MSPage">
        <g id="icon-40-one-finger-tap" sketch:type="MSArtboardGroup" fill="#929292">
            <path d="M16.5,10 C14.0147186,10 12,12.0135683 12,14.5050269 L12,31 L21,31 L21,14.5050269 C21,12.0169692 18.9802243,10 16.5,10 L16.5,10 Z M16.5,12 C15.1192881,12 14,13.1285541 14,14.5097752 L14,18 L19,18 L19,14.5097752 C19,13.1236646 17.8903379,12 16.5,12 L16.5,12 Z M14,21 L14,22 L19,22 L19,21 L14,21 L14,21 Z M14,23 L14,24 L19,24 L19,23 L14,23 L14,23 Z M22,20.9809678 C23.8354094,19.4218311 25,17.096918 25,14.5 C25,9.80557939 21.1944206,6 16.5,6 C11.8055794,6 8,9.80557939 8,14.5 C8,17.096918 9.16459055,19.4218311 11,20.9809678 L11,19.5990687 C9.75882544,18.2609299 9,16.4690816 9,14.5 C9,10.3578642 12.3578642,7 16.5,7 C20.6421358,7 24,10.3578642 24,14.5 C24,16.4690816 23.2411746,18.2609299 22,19.5990687 L22,20.9809678 L22,20.9809678 L22,20.9809678 Z" id="one-finger-tap" sketch:type="MSShapeGroup"></path>
        </g>
    </g>
</svg>

<svg width="32" height="32" viewBox="0 0 32 32" xmlns="http://www.w3.org/2000/svg"><path d="M16.5 10a4.5 4.5 0 0 0-4.5 4.505V31h9V14.505A4.506 4.506 0 0 0 16.5 10zm0 2c-1.38 0-2.5 1.129-2.5 2.51V18h5v-3.49c0-1.386-1.11-2.51-2.5-2.51zM14 21v1h5v-1h-5zm0 2v1h5v-1h-5zm8-2.019a8.5 8.5 0 1 0-11 0v-1.382a7.5 7.5 0 1 1 11 0v1.382z" fill="#929292" fill-rule="evenodd"/></svg>
